X: 1
T: Hambo till Sally
C: (Bruce Sagan)
S: Bruce Sagan's "scanfolk" session archive
F: https://app.box.com/s/u6iiren0igvsukrhdducy7orq72jayq8/file/870000178519 2021-10-11
R: hambo
Z: 2021 John Chambers <jc:trillian.mit.edu>
M: 3/4
L: 1/8
K: G
|: "G"B>c d2 B2 | "C"g>e ce "D7"d2 | "G"g>a bd gb | "A7"ag f/g/e/f/ "D7"dc |
|  "G"B>c dB cd | "C"eg "D7"fa "G"g2 | "C"g>e ce "D7"dB | AF "G"G3  [1 A :|[2 F ||
|: "Em"G2 EG Be | "B7"^d>e fd "Em"e2 | "C"g>e ce "G"dB | "A7"A>F EF "D"DF |
|  "Em"GF E/F/G/A/ Be | "B7"^d>e fd "Em"e2 | "C"ge ce "D7"dB | AF "G"G3 [1 F :|[2 A ||
[| "G"B>c d2 B2 | "C"g>e ce "D7"d2 | "G"g>a bd gb | "A7"ag f/g/e/f/ "D7"dc |
|  "G"B>c dB cd | "C"eg "D7"fa "G"g2 | "C"g>e ce "D7"dB | AF "G"G4 |]
